X:1
T:Seige of Limerick
M:3/2
L:1/8
S:Sharp \`i Country Dance Tunes (1909)
Z:AK/Fiddlers Companion
K:D Minor
d3e f2d2 a4 | e3f g2 ^c2 f4 | =B3d ^c2 e2 de f2 | A2 d4 ^c2 d4 |
d3e f2d2 a4 | e3f g2c2 f4 | =B3d ^c2e2 de f2 | A2 d4 ^c2 d4 ||
(c3d) cB A2 AB c2 | (d3e) de f2 ef g2 | a2 f4 c2e2 cB | AB c4 e2 f4 |
a3b a2f2 d4 | g3a g2e2 ^c4 | f3g f2d2 =B2e2 | ^c2 A4 c2 d4 |
a3b a2f2 d4 | g3a g2e2 ^c4 | f3g f2d2 =B2e2 | ^c2 A4 c2 d4 ||
